packages/foundations/assets/icons/functional/images/date & time/calendar_14.svg

<svg width="14" height="14" viewBox="0 0 14 14" fill="none" xmlns="http://www.w3.org/2000/svg">
<g clip-path="url(#clip0_185_665)">
<path fill-rule="evenodd" clip-rule="evenodd" d="M2.09998 11.202V4.19417C2.09998 3.81091 2.41477 3.49612 2.79803 3.49612H4.19414V2.79806C4.19414 2.4148 4.50893 2.10001 4.89213 2.10001C5.28907 2.10001 5.60386 2.4148 5.60386 2.79806V3.49612H8.39609V2.79806C8.39609 2.4148 8.71088 2.10001 9.10782 2.10001C9.49102 2.10001 9.80581 2.4148 9.80581 2.79806V3.49612H11.2019C11.5852 3.49612 11.9 3.81091 11.9 4.19417V11.202C11.9 11.5852 11.5852 11.9 11.2019 11.9H2.79803C2.41477 11.9 2.09998 11.5852 2.09998 11.202ZM3.49609 10.5039H10.5039V7.69806H3.49609V10.5039ZM3.49609 6.30195H10.5039V4.89216L3.49609 4.90591V6.30195Z" fill="#1A1C1F"/>
</g>
<defs>
<clipPath id="clip0_185_665">
<rect width="14" height="14" fill="white"/>
</clipPath>
</defs>
</svg>

<svg xmlns="http://www.w3.org/2000/svg" width="14" height="14" fill="none"><g clip-path="url(#a)"><path fill="#1A1C1F" fill-rule="evenodd" d="M2.1 11.202V4.194c0-.383.315-.698.698-.698h1.396v-.698c0-.383.315-.698.698-.698.397 0 .712.315.712.698v.698h2.792v-.698c0-.383.315-.698.712-.698.383 0 .698.315.698.698v.698h1.396c.383 0 .698.315.698.698v7.008a.7.7 0 0 1-.698.698H2.798a.7.7 0 0 1-.698-.698m1.396-.698h7.008V7.698H3.496zm0-4.202h7.008v-1.41l-7.008.014z" clip-rule="evenodd"/></g><defs><clipPath id="a"><path fill="#fff" d="M0 0h14v14H0z"/></clipPath></defs></svg>
